img/image/content/forwho-4.svg

<svg width="30" height="30" viewBox="0 0 30 30" fill="none" xmlns="http://www.w3.org/2000/svg">
<path d="M14.1345 22.2005C13.9089 22.0349 13.5913 22.0833 13.4255 22.309L13.3629 22.3943C13.1972 22.6199 13.2455 22.9369 13.4708 23.1029C13.5613 23.1697 13.6668 23.2019 13.7713 23.2019C13.9267 23.2019 14.0802 23.1307 14.1796 22.996L14.2431 22.9096C14.4089 22.6838 14.3603 22.3664 14.1345 22.2005Z" fill="white"/>
<path d="M14.2667 27.0259L12.9622 24.6539L14.1802 22.9951C14.346 22.7694 14.2973 22.4519 14.0715 22.2861C13.8458 22.1202 13.5283 22.1689 13.3625 22.3948L11.9529 24.3146C11.836 24.4737 11.8222 24.6862 11.9173 24.8592L13.3779 27.5148V27.5147C13.4703 27.6826 13.6438 27.7776 13.8228 27.7776C13.9055 27.7775 13.9893 27.7573 14.0668 27.7147C14.3122 27.5797 14.4017 27.2714 14.2667 27.0259Z" fill="white"/>
<path d="M18.047 24.3146L16.6431 22.4026C16.5267 22.2441 16.3294 22.167 16.1364 22.2052C15.9435 22.2431 15.7899 22.3893 15.7422 22.58C15.7056 22.7265 15.7361 22.8815 15.8254 23.0032L17.0374 24.6539L15.7418 27.0098C15.7007 27.0846 15.6791 27.169 15.6791 27.2545C15.6791 27.486 15.8359 27.6882 16.0601 27.7458C16.1021 27.7566 16.1445 27.7618 16.1863 27.7618C16.3679 27.7618 16.54 27.6638 16.6308 27.499L18.0826 24.8594C18.1778 24.6862 18.1639 24.4737 18.047 24.3146Z" fill="white"/>
<path d="M18.851 16.3437C18.6842 16.2561 18.4825 16.2681 18.3273 16.3751C18.0256 16.5829 17.7457 16.8031 17.4952 17.0294C16.1302 18.2634 14.8334 18.0964 14.7826 18.0892C14.752 18.0844 14.7209 18.0822 14.6901 18.0831C14.1506 18.097 13.178 17.604 12.149 16.7959C11.9916 16.6723 11.8303 16.5545 11.6691 16.4458C11.5137 16.3408 11.3129 16.3302 11.1474 16.4183C10.9817 16.5063 10.8782 16.6785 10.8782 16.8661V18.6062C10.8782 18.76 10.9482 18.9055 11.0682 19.0018C11.0824 19.0132 11.0971 19.0238 11.1124 19.0335L14.7089 21.4368C14.7095 21.4371 14.71 21.4376 14.7106 21.438L14.7201 21.4443C14.8048 21.5004 14.9023 21.5287 15.0003 21.5287C15.0826 21.5287 15.165 21.5087 15.2403 21.4684C15.2562 21.4599 15.2714 21.4506 15.2861 21.4406C15.2878 21.4395 15.2895 21.4384 15.2912 21.4372C15.2932 21.436 15.2952 21.4346 15.2972 21.4333L18.8853 19.0357C18.8997 19.0265 18.9137 19.0167 18.9273 19.0061C19.0504 18.91 19.1223 18.7625 19.1223 18.6063V16.7928C19.1223 16.6042 19.0179 16.4314 18.851 16.3437ZM18.1078 18.3349L15.0002 20.4114L11.8926 18.3348V17.8735C12.6493 18.4234 13.7624 19.0979 14.6697 19.0978C14.6716 19.0978 14.6737 19.0978 14.6756 19.0978C14.9803 19.1315 16.5338 19.2231 18.108 17.8421V18.3349H18.1078Z" fill="white"/>
<path d="M15.5002 20.9381C15.4667 20.7369 15.316 20.5754 15.1176 20.528C14.9191 20.481 14.7118 20.5569 14.5911 20.7213L13.4252 22.3092C13.2594 22.5351 13.308 22.8525 13.5339 23.0183C13.6243 23.0847 13.7294 23.1167 13.8337 23.1167C13.9896 23.1167 14.1435 23.0449 14.243 22.9095L15.4028 21.33C15.4687 21.2437 15.5072 21.1364 15.5072 21.0216C15.5071 20.9937 15.5048 20.9656 15.5002 20.9381Z" fill="white"/>
<path d="M22.7274 4.58623C22.7173 4.50678 22.4797 2.79197 20.8656 2.11551C20.9124 1.81433 20.9075 1.42726 20.7163 1.05068C20.4593 0.544547 19.9522 0.214722 19.209 0.0702295C19.1771 0.0640186 19.1447 0.0609131 19.1122 0.0609131H12.3044C9.54002 0.0609131 7.29102 2.30986 7.29102 5.07432V7.74567C7.29102 8.44165 7.52826 9.12035 7.95893 9.6566C8.17244 9.9225 8.43541 10.3869 8.47508 11.0889C8.49055 11.363 8.72 11.5748 8.9958 11.5672C9.27026 11.5595 9.4887 11.3347 9.4887 11.0602V7.57739C9.83311 6.15303 11.0086 5.87583 11.2107 5.83839H13.4127C13.6718 5.83839 13.9265 5.79883 14.1699 5.72079C14.5886 5.58649 15.2529 5.33934 15.7366 5.15565C16.0601 5.03266 16.4184 5.02815 16.7451 5.14299L19.1026 5.97057C20.2812 6.40534 20.4915 7.43999 20.5176 7.60253V11.7824C20.5176 12.0479 20.7223 12.2682 20.987 12.2879C20.9999 12.2889 21.0125 12.2894 21.0252 12.2894C21.274 12.2893 21.4888 12.107 21.5265 11.8573C21.5284 11.8442 21.7309 10.536 22.384 9.48855C22.6113 9.12392 22.7314 8.7082 22.7314 8.28632V4.65028C22.7314 4.62889 22.7301 4.6075 22.7274 4.58623ZM21.7169 8.28609C21.7169 8.51267 21.653 8.73743 21.532 8.9373V7.56784C21.532 7.5495 21.531 7.53128 21.529 7.51306C21.521 7.4394 21.3114 5.70116 19.449 5.01702C19.4467 5.0162 19.4444 5.01538 19.4422 5.01456L17.0811 4.18569C16.8149 4.09223 16.5364 4.04559 16.2581 4.04559C15.9588 4.04559 15.6597 4.09955 15.3763 4.20737C14.6992 4.46459 14.1748 4.65391 13.8601 4.75481C13.7169 4.80069 13.5664 4.82401 13.4127 4.82401H11.1696C11.1479 4.82401 11.1261 4.82541 11.1045 4.82817C11.0186 4.8393 8.99557 5.127 8.48645 7.40894C8.47836 7.4452 8.47426 7.48224 8.47426 7.51938V8.56329C8.36381 8.30806 8.30533 8.02927 8.30533 7.74573V5.07444C8.30533 2.86943 10.0993 1.07547 12.3042 1.07547H19.061C19.3407 1.13506 19.6807 1.25734 19.8097 1.50613C19.9676 1.81064 19.7877 2.22994 19.7875 2.23029C19.7226 2.36828 19.7234 2.52807 19.7893 2.66547C19.8553 2.80287 19.9796 2.9033 20.1279 2.93899C21.4192 3.24983 21.6825 4.48832 21.7169 4.68866V8.28609H21.7169Z" fill="white"/>
<path d="M21.5292 7.51309C21.5212 7.43944 21.3116 5.70119 19.4492 5.01705C19.4469 5.01623 19.4446 5.01541 19.4423 5.01459L17.0813 4.18572C16.5287 3.99177 15.9234 3.99951 15.3764 4.20728C14.6993 4.46451 14.1749 4.65382 13.8602 4.75478C13.7171 4.80066 13.5665 4.82392 13.4128 4.82392H11.1697C11.148 4.82392 11.1262 4.82533 11.1046 4.82808C11.0187 4.83922 8.99568 5.12691 8.48655 7.40885C8.47847 7.44512 8.47437 7.48215 8.47437 7.5193V11.8796C8.47437 11.8834 8.47442 11.8871 8.47448 11.8909C8.47782 12.0423 8.58499 15.6193 11.0565 17.2552L11.0693 17.2642C11.0799 17.2717 11.0905 17.2792 11.1015 17.2867C11.2425 17.3818 11.384 17.4851 11.5224 17.5938C12.2424 18.1591 13.5992 19.0979 14.6696 19.0979C14.6716 19.0979 14.6735 19.0979 14.6755 19.0979C14.7337 19.1042 14.8374 19.1128 14.9782 19.1128C15.5848 19.1128 16.879 18.9538 18.1754 17.782C18.3929 17.5854 18.6375 17.3931 18.9027 17.2104L18.9406 17.1838C18.953 17.1751 18.9654 17.1663 18.9781 17.1578C19.8026 16.604 21.2304 15.1753 21.5301 11.8276C21.5315 11.8126 21.5322 11.7974 21.5322 11.7823V7.56787C21.5321 7.54959 21.5311 7.53137 21.5292 7.51309ZM20.5176 11.7594C20.2413 14.7806 18.954 15.9518 18.4125 16.3155C18.3933 16.3285 18.3743 16.3418 18.3553 16.3552L18.3272 16.375C18.0255 16.5828 17.7455 16.803 17.4951 17.0294C16.1352 18.2588 14.8425 18.0975 14.7791 18.0886C14.7497 18.0842 14.7198 18.0824 14.69 18.0832C14.1505 18.097 13.1778 17.6041 12.1488 16.7959C11.9915 16.6723 11.8301 16.5545 11.6692 16.446L11.6567 16.4372C11.6445 16.4285 11.6324 16.4199 11.6181 16.4104C9.62369 15.0903 9.4932 12.0012 9.4888 11.8723V7.57737C9.83445 6.14779 11.0172 5.87375 11.2099 5.83836H13.4128C13.6719 5.83836 13.9266 5.79881 14.17 5.72076C14.5888 5.58646 15.2531 5.33931 15.7367 5.15562C16.0602 5.03263 16.4185 5.02812 16.7452 5.14297L19.1027 5.97055C20.2813 6.40531 20.4916 7.43996 20.5177 7.6025V11.7594H20.5176Z" fill="white"/>
<path d="M15.4537 20.7949C15.3746 20.6368 15.219 20.5313 15.0429 20.5163C14.8671 20.5017 14.6957 20.579 14.5911 20.7215L13.3761 22.3763C13.2105 22.602 13.2589 22.9193 13.4844 23.0851C13.5749 23.1517 13.6801 23.1839 13.7845 23.1839C13.9401 23.1839 14.0938 23.1124 14.1932 22.9775L15.4083 21.3288C15.4725 21.2416 15.5072 21.1302 15.5072 21.0219C15.5073 20.9432 15.4888 20.8654 15.4537 20.7949Z" fill="white"/>
<path d="M15.4861 28.9616C15.2956 28.7623 14.9808 28.7517 14.7773 28.9379L14.6614 29.0439C14.4878 29.2027 14.4461 29.46 14.5608 29.6655L14.5644 29.6718C14.6419 29.8107 14.78 29.9051 14.9375 29.927C14.9608 29.9302 14.9841 29.9318 15.0073 29.9318C15.1409 29.9318 15.2702 29.879 15.366 29.7832L15.4783 29.6707C15.6732 29.4758 15.6767 29.1608 15.4861 28.9616Z" fill="white"/>
<path d="M15.3387 29.0439L15.2227 28.9378C15.0193 28.7518 14.7044 28.7624 14.5138 28.9616C14.3232 29.1609 14.3268 29.476 14.5218 29.6708L14.6343 29.7833C14.7301 29.8791 14.8593 29.9318 14.9929 29.9318C15.0167 29.9318 15.0407 29.9302 15.0646 29.9267C15.2226 29.9042 15.3608 29.8085 15.4376 29.6686L15.4412 29.6622C15.5535 29.4571 15.5112 29.2017 15.3387 29.0439Z" fill="white"/>
<path d="M15.3472 29.0518L15.3465 29.0512C15.2682 28.978 15.1669 28.9297 15.0553 28.9174C14.9058 28.9011 14.7602 28.9518 14.6543 29.0504L14.6528 29.0518C14.5502 29.1453 14.4905 29.2768 14.4875 29.4156C14.4846 29.5545 14.5386 29.6884 14.637 29.7862L14.6423 29.7915C14.7413 29.8899 14.8706 29.9391 14.9999 29.9391C15.1298 29.9391 15.2596 29.8895 15.3585 29.7906L15.3639 29.7853C15.4618 29.6872 15.5155 29.5535 15.5123 29.415C15.5092 29.2764 15.4495 29.1452 15.3472 29.0518Z" fill="white"/>
<path d="M15.1645 20.5306C14.9544 20.4634 14.7239 20.5414 14.596 20.7213C14.4529 20.9227 14.4765 21.1972 14.6508 21.3723C14.7489 21.4709 14.8791 21.5214 15.0103 21.5214C15.1122 21.5214 15.2146 21.4909 15.303 21.4287C15.438 21.3337 15.5183 21.179 15.5183 21.0139V21.0127C15.5183 20.792 15.3747 20.5977 15.1645 20.5306Z" fill="white"/>
<path d="M15.4122 20.717L15.4079 20.7112C15.2777 20.5351 15.0492 20.4625 14.8413 20.531C14.6333 20.5995 14.4928 20.7938 14.4928 21.0127V21.0214C14.4928 21.2081 14.5976 21.3783 14.7622 21.4667C14.8367 21.5067 14.919 21.5265 15.0011 21.5265C15.1002 21.5265 15.1992 21.4978 15.2842 21.4414C15.4002 21.3646 15.4796 21.2436 15.5038 21.1066C15.528 20.9698 15.4949 20.8288 15.4122 20.717Z" fill="white"/>
<path d="M21.034 19.1237C20.9815 18.9848 20.8707 18.8759 20.7309 18.8259L18.7861 18.1287C18.7703 18.1231 18.754 18.118 18.7377 18.1141C18.5989 18.0793 18.4518 18.1048 18.3329 18.1844L14.7295 20.5922C14.7285 20.5929 14.7275 20.5935 14.7265 20.5942L15.0094 21.0149L14.7201 20.5985C14.6144 20.6684 14.5387 20.7756 14.508 20.8985C14.4912 20.966 14.4884 21.0365 14.4998 21.1051C14.5129 21.1835 14.5442 21.2578 14.5913 21.322L17.2295 24.915C17.3253 25.0457 17.4774 25.1221 17.6382 25.1221C17.6492 25.1221 17.6603 25.1217 17.6714 25.1209C17.8442 25.1095 17.9993 25.011 18.0827 24.8592L21.004 19.5477C21.0757 19.4175 21.0867 19.2625 21.034 19.1237ZM17.5768 23.674L15.7226 21.1486L18.6841 19.1697L19.8286 19.5801L17.5768 23.674Z" fill="white"/>
<path d="M15.4998 20.9341C15.476 20.7979 15.3976 20.6774 15.2828 20.6003L11.6674 18.1844C11.5523 18.1075 11.4104 18.0811 11.2753 18.1111C11.2545 18.1157 11.2341 18.1216 11.2141 18.1288L9.26936 18.8259C9.12956 18.876 9.01876 18.9849 8.9662 19.1238C8.91364 19.2627 8.92454 19.4176 8.99614 19.5478L11.9174 24.8592C12.0009 25.011 12.156 25.1096 12.3288 25.121C12.3398 25.1217 12.3509 25.122 12.3619 25.122C12.5227 25.122 12.6747 25.0456 12.7707 24.9149L14.1804 22.9951C14.1815 22.9936 14.1826 22.992 14.1837 22.9904L15.409 21.3216C15.4908 21.2102 15.5236 21.0703 15.4998 20.9341ZM13.3628 22.3945C13.3615 22.3961 13.3604 22.3978 13.3591 22.3994L12.4232 23.6741L10.1715 19.5801L11.316 19.1698L14.2774 21.1487L13.3628 22.3945Z" fill="white"/>
<path d="M29.9749 27.7825L29.3206 23.8314C29.1144 22.5862 28.2491 21.5459 27.0622 21.1166L20.7321 18.8264C20.5369 18.7559 20.3187 18.8112 20.1808 18.966C20.0429 19.1208 20.013 19.3441 20.1056 19.5298L21.4273 22.1802L20.1304 22.2002C19.9543 22.2029 19.7922 22.2967 19.7023 22.4481C19.6123 22.5995 19.6072 22.7866 19.6889 22.9427L20.2208 23.9583L14.7773 28.938C14.7717 28.9431 14.7663 28.9483 14.7609 28.9536L14.6485 29.066C14.4893 29.2252 14.4541 29.4704 14.5622 29.668L14.5662 29.6752C14.6552 29.8378 14.8259 29.939 15.0112 29.939H28.1463C28.692 29.939 29.2072 29.7003 29.56 29.2842C29.9129 28.868 30.0641 28.3207 29.9749 27.7825ZM28.7865 28.6281C28.6266 28.8165 28.3933 28.9246 28.1463 28.9246H16.2948L21.1939 24.4431C21.3638 24.2878 21.4078 24.0375 21.3009 23.8335L20.9699 23.2017L22.2488 23.182C22.4231 23.1794 22.5837 23.0874 22.6744 22.9385C22.7649 22.7895 22.7727 22.6045 22.6949 22.4485L21.5795 20.2116L26.7174 22.0704C27.5596 22.3751 28.1738 23.1134 28.3201 23.997L28.9744 27.9482C28.9744 27.9482 28.9744 27.9482 28.9744 27.9482C29.0147 28.1919 28.9463 28.4397 28.7865 28.6281Z" fill="white"/>
<path d="M15.3516 29.0558L15.3457 29.0505C15.1449 28.8687 14.8366 28.8768 14.6456 29.0689L14.6403 29.0742C14.4959 29.2195 14.453 29.4375 14.5317 29.6266C14.6104 29.8158 14.7952 29.9391 15 29.9391H15.0111C15.2209 29.9391 15.409 29.8099 15.4843 29.6143C15.5599 29.4185 15.5071 29.1966 15.3516 29.0558Z" fill="white"/>
<path d="M15.3355 29.0412C15.2204 28.9376 15.0643 28.8922 14.9113 28.9182C14.7586 28.9441 14.626 29.0385 14.5515 29.1743L14.548 29.1807C14.4411 29.3756 14.4736 29.6175 14.6282 29.7773L14.63 29.7792C14.7294 29.8819 14.8618 29.9337 14.9946 29.9337C15.1168 29.9337 15.2393 29.8898 15.3363 29.8011L15.3416 29.7963C15.3877 29.7544 15.4257 29.7041 15.4535 29.6483C15.5557 29.4442 15.5052 29.1938 15.3355 29.0412Z" fill="white"/>
<path d="M15.3576 29.0722L15.3555 29.07C15.3541 29.0687 15.3527 29.0673 15.3514 29.066L15.2389 28.9536C15.2337 28.9483 15.2282 28.9431 15.2227 28.9381L9.77915 23.9584L10.3111 22.9427C10.3929 22.7868 10.3878 22.5996 10.2978 22.4482C10.2078 22.2968 10.0458 22.203 9.86968 22.2002L8.5727 22.1803L9.89435 19.5298C9.98693 19.3442 9.95704 19.1209 9.81917 18.966C9.6813 18.8112 9.46286 18.7558 9.26792 18.8265L2.93785 21.1167C1.75097 21.5459 0.885541 22.5862 0.679349 23.8314L0.0250313 27.7826C-0.0640899 28.321 0.0871994 28.8682 0.440052 29.2843C0.792962 29.7004 1.3083 29.939 1.8538 29.939H15C15.2055 29.939 15.3906 29.8151 15.4689 29.6253C15.5472 29.4354 15.5032 29.217 15.3576 29.0722ZM1.85386 28.9247C1.60683 28.9247 1.37351 28.8166 1.21378 28.6282C1.05406 28.4398 0.985619 28.192 1.02593 27.9482L1.68025 23.9971C1.82656 23.1133 2.44068 22.3751 3.28297 22.0705L8.42077 20.2117L7.30538 22.4484C7.22756 22.6045 7.2353 22.7894 7.32594 22.9384C7.41647 23.0874 7.57719 23.1793 7.75151 23.182L9.03038 23.2017L8.69944 23.8335C8.59263 24.0375 8.63657 24.2878 8.80638 24.4431L13.7055 28.9247H1.85386Z" fill="white"/>
<path d="M16.7265 22.8257C16.7631 22.6792 16.7326 22.5241 16.6432 22.4024L15.4089 20.7214C15.2791 20.5447 15.0504 20.4744 14.8421 20.5427C14.7297 20.5796 14.6371 20.654 14.5754 20.7491L13.3636 22.3933C13.3463 22.4167 13.3309 22.4419 13.3178 22.4681C13.2348 22.6342 13.2492 22.8323 13.3552 22.9847L13.8712 23.7258L13.3215 27.1909C13.3039 27.3021 13.3238 27.416 13.3781 27.5148L14.5557 29.6558C14.6448 29.818 14.8152 29.9186 15.0001 29.9186C15.1851 29.9186 15.3554 29.818 15.4445 29.6558L16.631 27.4989C16.6721 27.424 16.6937 27.3399 16.6937 27.2545V27.2542C16.6937 27.2276 16.6915 27.201 16.6874 27.1747L16.1402 23.7258L16.6507 22.993C16.6857 22.9422 16.7116 22.8854 16.7265 22.8257ZM15.0001 28.359L14.3506 27.1781L14.9051 23.6831C14.9257 23.5536 14.8953 23.4213 14.8204 23.3138L14.3954 22.7033L15.0016 21.8808L15.611 22.7107L15.191 23.3138C15.1161 23.4212 15.0858 23.5536 15.1063 23.6831L15.6583 27.1622L15.0001 28.359Z" fill="white"/>
</svg>

<svg width="30" height="30" fill="none" xmlns="http://www.w3.org/2000/svg"><path d="M14.134 22.2a.507.507 0 0 0-.709.109l-.062.085a.507.507 0 0 0 .817.602l.063-.086a.507.507 0 0 0-.109-.71Z" fill="#fff"/><path d="m14.267 27.026-1.305-2.372 1.218-1.659a.507.507 0 1 0-.817-.6l-1.41 1.92a.507.507 0 0 0-.036.544l1.46 2.656a.507.507 0 1 0 .89-.49ZM18.047 24.315l-1.404-1.912a.507.507 0 1 0-.818.6l1.212 1.65-1.295 2.357a.509.509 0 0 0 .444.752.508.508 0 0 0 .445-.263l1.452-2.64a.507.507 0 0 0-.036-.544ZM18.851 16.344a.507.507 0 0 0-.524.031 8.091 8.091 0 0 0-.832.654c-1.365 1.234-2.662 1.067-2.712 1.06a.504.504 0 0 0-.093-.006c-.54.014-1.512-.479-2.541-1.287a8.241 8.241 0 0 0-.48-.35.507.507 0 0 0-.79.42v1.74a.507.507 0 0 0 .233.427l3.597 2.404.002.001.01.006a.507.507 0 0 0 .565-.003l.005-.004.006-.004 3.588-2.397a.507.507 0 0 0 .237-.43v-1.813a.507.507 0 0 0-.271-.45Zm-.743 1.99L15 20.412l-3.107-2.076v-.462c.756.55 1.87 1.225 2.777 1.225h.006c.304.034 1.858.125 3.432-1.256v.493Z" fill="#fff"/><path d="M15.5 20.938a.507.507 0 0 0-.909-.217l-1.166 1.588a.507.507 0 1 0 .818.6l1.16-1.579a.507.507 0 0 0 .097-.392ZM22.727 4.586c-.01-.08-.247-1.794-1.861-2.47a1.744 1.744 0 0 0-.15-1.065C20.46.545 19.952.215 19.21.07a.506.506 0 0 0-.097-.01h-6.808a5.019 5.019 0 0 0-5.013 5.013v2.672c0 .696.237 1.374.668 1.91.213.266.476.73.516 1.433a.506.506 0 0 0 1.014-.029V7.577c.344-1.424 1.52-1.701 1.722-1.739h2.202c.259 0 .514-.04.757-.117a37.847 37.847 0 0 0 1.567-.565 1.47 1.47 0 0 1 1.008-.013l2.358.828a2.156 2.156 0 0 1 1.415 1.632v4.18a.507.507 0 0 0 1.008.074c.002-.013.205-1.321.858-2.368.227-.365.347-.78.347-1.203V4.65a.509.509 0 0 0-.004-.064Zm-1.01 3.7c0 .227-.064.451-.185.651v-1.37a.501.501 0 0 0-.003-.054 3.162 3.162 0 0 0-2.087-2.498l-2.36-.83a2.485 2.485 0 0 0-1.706.022c-.677.258-1.201.447-1.516.548-.143.046-.294.069-.447.069H11.17a.514.514 0 0 0-.066.004 3.229 3.229 0 0 0-2.618 2.58.507.507 0 0 0-.012.111v1.044a2.061 2.061 0 0 1-.169-.817V5.074a4.004 4.004 0 0 1 4-3.999h6.756c.28.06.62.182.749.431.158.305-.022.724-.022.724a.507.507 0 0 0 .34.709c1.291.31 1.555 1.55 1.589 1.75v3.597Z" fill="#fff"/><path d="M21.53 7.513a3.162 3.162 0 0 0-2.08-2.496l-.008-.002-2.36-.83a2.487 2.487 0 0 0-1.706.022c-.677.258-1.201.447-1.516.548-.143.046-.293.069-.447.069H11.17a.516.516 0 0 0-.065.004 3.229 3.229 0 0 0-2.618 2.58.508.508 0 0 0-.013.111v4.36a.71.71 0 0 0 0 .012c.004.151.111 3.728 2.582 5.364l.013.01.032.022c.141.095.283.198.421.307.72.565 2.077 1.504 3.148 1.504h.005c.059.006.162.015.303.015.607 0 1.901-.16 3.197-1.331.218-.197.462-.389.728-.572l.038-.026.037-.026c.825-.554 2.252-1.983 2.552-5.33a.489.489 0 0 0 .002-.046V7.568a.559.559 0 0 0-.003-.055Zm-1.012 4.246c-.277 3.022-1.564 4.193-2.105 4.556a3.65 3.65 0 0 0-.058.04l-.028.02a8.068 8.068 0 0 0-.832.654c-1.36 1.23-2.653 1.069-2.716 1.06a.51.51 0 0 0-.089-.006c-.54.014-1.512-.479-2.541-1.287a8.206 8.206 0 0 0-.48-.35l-.012-.009a1.36 1.36 0 0 0-.039-.027c-1.994-1.32-2.125-4.409-2.13-4.538V7.577c.346-1.43 1.53-1.703 1.722-1.739h2.203c.259 0 .514-.04.757-.117a37.742 37.742 0 0 0 1.567-.565 1.47 1.47 0 0 1 1.008-.013l2.358.828a2.156 2.156 0 0 1 1.415 1.631v4.157ZM15.454 20.795a.507.507 0 0 0-.863-.074l-1.215 1.655a.507.507 0 0 0 .817.601l1.215-1.648a.526.526 0 0 0 .046-.534ZM15.486 28.962a.507.507 0 0 0-.709-.024l-.116.106a.507.507 0 0 0-.1.622l.003.006a.507.507 0 0 0 .802.111l.112-.112a.507.507 0 0 0 .008-.71Z" fill="#fff"/><path d="m15.339 29.044-.116-.106a.507.507 0 0 0-.701.733l.112.112a.507.507 0 0 0 .804-.114l.003-.007a.508.508 0 0 0-.102-.618Z" fill="#fff"/><path d="M15.347 29.052a.507.507 0 0 0-.693-.002l-.001.002a.507.507 0 0 0-.016.734l.005.005a.506.506 0 0 0 .716 0l.006-.006a.508.508 0 0 0-.017-.733ZM15.165 20.53a.51.51 0 0 0-.514.842.506.506 0 0 0 .652.057.507.507 0 0 0 .215-.415v-.001a.507.507 0 0 0-.354-.482Z" fill="#fff"/><path d="m15.412 20.717-.004-.006a.507.507 0 0 0-.915.302v.008a.507.507 0 0 0 .791.42.507.507 0 0 0 .128-.724Z" fill="#fff"/><path d="M21.034 19.124a.506.506 0 0 0-.303-.298l-1.945-.697a.506.506 0 0 0-.453.056l-3.603 2.407-.004.002.283.42-.289-.415a.507.507 0 0 0-.129.723l2.639 3.593a.507.507 0 0 0 .853-.056l2.921-5.311a.506.506 0 0 0 .03-.424Zm-3.457 4.55-1.854-2.525 2.961-1.98 1.145.411-2.252 4.094Z" fill="#fff"/><path d="M15.5 20.934a.507.507 0 0 0-.217-.334l-3.616-2.416a.508.508 0 0 0-.453-.055l-1.945.697a.507.507 0 0 0-.273.722l2.921 5.311a.508.508 0 0 0 .854.056l1.41-1.92a.191.191 0 0 0 .003-.005l1.225-1.668a.507.507 0 0 0 .09-.388Zm-2.137 1.46-.004.005-.936 1.275-2.252-4.094 1.145-.41 2.961 1.979-.914 1.245ZM29.975 27.782l-.654-3.95a3.498 3.498 0 0 0-2.259-2.715l-6.33-2.29a.507.507 0 0 0-.626.703l1.321 2.65-1.297.02a.507.507 0 0 0-.441.743l.532 1.015-5.444 4.98a.604.604 0 0 0-.016.016l-.112.112a.507.507 0 0 0-.087.602l.004.007c.09.163.26.264.445.264h13.135a1.85 1.85 0 0 0 1.829-2.157Zm-1.189.846a.838.838 0 0 1-.64.297H16.295l4.899-4.482a.507.507 0 0 0 .107-.61l-.331-.631 1.279-.02a.507.507 0 0 0 .446-.733l-1.116-2.237 5.138 1.858a2.482 2.482 0 0 1 1.603 1.927l.654 3.951a.838.838 0 0 1-.188.68Z" fill="#fff"/><path d="m15.352 29.056-.006-.006a.507.507 0 0 0-.7.019l-.006.005a.507.507 0 0 0 .36.865h.011a.507.507 0 0 0 .34-.883Z" fill="#fff"/><path d="M15.335 29.041a.507.507 0 0 0-.784.133l-.003.007a.507.507 0 0 0 .08.596l.002.002a.506.506 0 0 0 .706.022l.006-.005a.513.513 0 0 0-.006-.755Z" fill="#fff"/><path d="m15.358 29.072-.003-.002-.004-.004-.112-.112a.395.395 0 0 0-.016-.016l-5.444-4.98.532-1.015a.507.507 0 0 0-.441-.743l-1.297-.02 1.321-2.65a.507.507 0 0 0-.626-.704l-6.33 2.29a3.497 3.497 0 0 0-2.259 2.715l-.654 3.952a1.85 1.85 0 0 0 1.829 2.156H15a.507.507 0 0 0 .358-.867Zm-13.504-.147a.838.838 0 0 1-.828-.977l.654-3.95a2.482 2.482 0 0 1 1.603-1.928l5.138-1.858-1.116 2.236a.507.507 0 0 0 .447.734l1.278.02-.33.631a.507.507 0 0 0 .106.61l4.9 4.482H1.854Z" fill="#fff"/><path d="M16.727 22.826a.507.507 0 0 0-.084-.424l-1.234-1.68a.506.506 0 0 0-.834.027l-1.211 1.644a.51.51 0 0 0-.009.592l.516.74-.55 3.466a.508.508 0 0 0 .057.324l1.178 2.14a.507.507 0 0 0 .889 0L16.63 27.5a.516.516 0 0 0 .056-.324l-.547-3.45.51-.732a.516.516 0 0 0 .077-.167ZM15 28.359l-.65-1.18.555-3.496a.507.507 0 0 0-.085-.37l-.425-.61.607-.822.609.83-.42.603a.507.507 0 0 0-.085.37l.552 3.478L15 28.36Z" fill="#fff"/></svg>
